X:1
T: Miss Trotter (of Bush's) Reel
C:
R:Reel
Q: 232
K:Bb
M:4/4
L:1/8
|:g|f2 df Bd FB|EB DB cC Cg|f2 dB cA GF|GB Ac dB Bg|
f2 df Bd FB|EB DB cC Cg|fd cB ge dc|bf ge dB B:|
|:a|ba bf bf dB|ed cB Ac ce|df ba bf dB|Ag fe dB Ba|
ba bf bf dB|ed cB Ac cE|DB EB FB Gg|fe dc dB B:|
